public/cards/4_yellow.svg

<svg width="242" height="362" viewBox="0 0 242 362" fill="none" xmlns="http://www.w3.org/2000/svg">
<path d="M201 1H41C18.9086 1 1 18.9086 1 41V321C1 343.091 18.9086 361 41 361H201C223.091 361 241 343.091 241 321V41C241 18.9086 223.091 1 201 1Z" fill="white" stroke="black" stroke-width="2"/>
<path d="M201 21H41C29.9543 21 21 29.9543 21 41V321C21 332.046 29.9543 341 41 341H201C212.046 341 221 332.046 221 321V41C221 29.9543 212.046 21 201 21Z" fill="#FFAA00"/>
<path fill-rule="evenodd" clip-rule="evenodd" d="M181 81C92.6344 81 21 152.634 21 241C21 263.091 38.9086 281 61 281C149.366 281 221 209.366 221 121C221 98.9086 203.091 81 181 81Z" fill="white"/>
<path d="M116.2 121L77 201V221H125V241H145V221H157V201H145V161H125V201H97.8L137 121H116.2Z" fill="#FFAA00"/>
<path d="M50.2001 31L30.6001 71V81H54.6001V91H64.6001V81H70.6001V71H64.6001V51H54.6001V71H41.0001L60.6001 31H50.2001Z" fill="white"/>
<path d="M191 331L210.6 291V281H186.6V271H176.6V281H170.6V291H176.6V311H186.6V291H200.2L180.6 331H191Z" fill="white"/>
</svg>

<svg xmlns="http://www.w3.org/2000/svg" width="242" height="362" fill="none"><path fill="#fff" stroke="#000" stroke-width="2" d="M201 1H41C18.909 1 1 18.909 1 41v280c0 22.091 17.909 40 40 40h160c22.091 0 40-17.909 40-40V41c0-22.091-17.909-40-40-40Z"/><path fill="#FA0" d="M201 21H41c-11.046 0-20 8.954-20 20v280c0 11.046 8.954 20 20 20h160c11.046 0 20-8.954 20-20V41c0-11.046-8.954-20-20-20Z"/><path fill="#fff" fill-rule="evenodd" d="M181 81C92.634 81 21 152.634 21 241c0 22.091 17.909 40 40 40 88.366 0 160-71.634 160-160 0-22.091-17.909-40-40-40Z" clip-rule="evenodd"/><path fill="#FA0" d="M116.2 121 77 201v20h48v20h20v-20h12v-20h-12v-40h-20v40H97.8l39.2-80h-20.8Z"/><path fill="#fff" d="M50.2 31 30.6 71v10h24v10h10V81h6V71h-6V51h-10v20H41l19.6-40H50.2ZM191 331l19.6-40v-10h-24v-10h-10v10h-6v10h6v20h10v-20h13.6l-19.6 40H191Z"/></svg>
